X:1
T: Dunblane
C:
R:Strathspey
Q: 128
K:G
M:4/4
L:1/16
|:D2|G3A B3c dB3 B3d|e3f g3e dB3 B3A|G3A B3c dB3 g3e|dB3 A3B G6D2|
G3A B3c dB3 B3d|e3f g3e dB3 B3A|G3A B3c dB3 g3e|dB3 A3B G6d2|
g3f e3d gd3 d3B|c3B A3G FA3 A3d|g3f e3d gd3 eg3|dB3 A3B G6d2|
g3f e3d gd3 d3B|c3B A3G FA3 A3d|g3f e3d gd3 eg3|dB3 A3B G6:|
